X: 18374
T: Hundred Pipers
R: jig
M: 6/8
K: Amajor
c2E EDE F2A A2f|e2c cBA c2B BAB|
c2E EDE F2A A2f|1 ecA BcB A3 A2B:|2 ecA BcB A2A Bcd||
|:e2e ece f2a a2f|e2c cBA c2B Bcd|
e2e ece f2a a2f|1 ecA BcB A2A Bcd:|2 ecA BcB A3 A2B||

